!!!OTL: HERR JESU LASS DEIN BITTERN TOD UND PEIN
!!!ARE: Europa, Mitteleuropa, Deutschland, Hessen, Taunus, Wuerges
!!!SCT: E1583
!!!YEM: Copyright 1995, estate of Helmut Schaffrath.
**kern
*ICvox
*Ivox
*M2/4
*k[f#]
*G:
{8d
=1
8.g
16f#
8g
8a
=2
4b
8a}
{8a
=3
8b
16b
16cc
8dd
16dd
16cc
=4
4.b}
{8d
=5
8.g
16f#
8g
8a
=6
4b
8a}
{8a
=7
8b
16b
16cc
8dd
16dd
16cc
=8
4.b}
{16g
16a
=9
8b
8dd
8a
16b
16a
=10
4g
8r}
{16g
16a
=11
8b
8dd
8a
16b
16a
=12
4g
8r}
==
!!!AGN: Staende - Lied, Nachtwaechter
!!!ONB: ESAC (Essen Associative Code) Database: ERK3
!!!AMT: simple duple
!!!AIN: vox
!!!EED: Helmut Schaffrath
!!!EEV: 1.0
*-
